src/assets/images/icons/github.svg

<?xml version="1.0" encoding="UTF-8"?>
<svg width="22px" height="22px" viewBox="0 0 22 22" version="1.1" xmlns="http://www.w3.org/2000/svg" xmlns:xlink="http://www.w3.org/1999/xlink">
    <!-- Generator: Sketch 49.1 (51147) - http://www.bohemiancoding.com/sketch -->
    <title>github</title>
    <desc>Created with Sketch.</desc>
    <defs></defs>
    <g id="Page-1" stroke="none" stroke-width="1" fill="none" fill-rule="evenodd">
        <g id="Homepage" transform="translate(-277.000000, -2214.000000)">
            <g id="GitHub" transform="translate(278.000000, 2210.000000)">
                <g id="github" transform="translate(0.000000, 5.000000)">
                    <circle id="Path" stroke="#4A4A4A" cx="10" cy="10" r="10"></circle>
                    <path d="M12.0764331,11.1592373 C11.8386401,11.1592373 11.6369431,11.2738845 11.4713372,11.5031855 C11.3057313,11.7324865 11.2229308,12.008492 11.2229308,12.3312118 C11.2229308,12.65393 11.3057313,12.9320585 11.4713372,13.1656055 C11.6369431,13.3991525 11.8386401,13.5159244 12.0764331,13.5159244 C12.3057341,13.5159244 12.5031835,13.3991525 12.6687894,13.1656055 C12.8343953,12.9320585 12.9171975,12.65393 12.9171975,12.3312118 C12.9171975,12.008492 12.8343953,11.7324865 12.6687894,11.5031855 C12.5031835,11.2738845 12.3057341,11.1592373 12.0764331,11.1592373 Z M15.0318471,8.10191246 C15.0743105,7.98301432 15.0785565,7.63482334 15.0445868,7.05732484 C15.0106154,6.47982797 14.8662429,5.86836953 14.6114642,5.22292994 C14.6114642,5.22292994 14.3397047,5.29511704 13.7961775,5.43949126 C13.2526504,5.58386548 12.5350367,5.96178181 11.6433121,6.57325004 C11.4564745,6.52229299 11.2144387,6.48407725 10.9171983,6.45859954 C10.6199562,6.43312183 10.314227,6.4203838 10.0000008,6.4203838 C9.68577304,6.4203838 9.38004382,6.43312183 9.08280336,6.45859954 C8.78556127,6.48407725 8.5435255,6.52229299 8.3566879,6.57325004 C7.46496326,5.96178181 6.74734797,5.58386548 6.20382084,5.43949126 C5.66029534,5.29511704 5.38853503,5.22292994 5.38853503,5.22292994 C5.13375666,5.86836953 4.9893844,6.47982797 4.95541401,7.05732484 C4.92144363,7.63482334 4.92993598,7.98301432 4.98089172,8.10191246 C4.67515777,8.43312428 4.435245,8.80254696 4.26114642,9.2101919 C4.08704796,9.61783684 4,10.0934164 4,10.6369435 C4,11.8089245 4.20806588,12.7154972 4.62420382,13.3566891 C5.04034177,13.9978809 5.5222903,14.4692138 6.07006329,14.7707014 C6.61783643,15.0721891 7.15923241,15.2505313 7.69426752,15.3057333 C8.22930262,15.3609353 8.61995699,15.3885358 8.86624204,15.3885358 C8.97664652,15.3885358 9.13588015,15.390659 9.34394945,15.3949053 C9.55201875,15.3991516 9.77069982,15.4012747 10.0000008,15.4012747 C10.2377938,15.4012747 10.4585979,15.3991516 10.6624212,15.3949053 C10.8662429,15.390659 11.0233535,15.3885358 11.133758,15.3885358 C11.380043,15.3885358 11.7706974,15.3609353 12.3057325,15.3057333 C12.8407676,15.2505313 13.3821636,15.0721891 13.9299367,14.7707014 C14.4777099,14.4692138 14.9596584,13.9978809 15.3757954,13.3566891 C15.791934,12.7154972 16,11.8089245 16,10.6369435 C16,10.0934164 15.9129518,9.61783684 15.7388539,9.2101919 C15.5647543,8.80254696 15.3290892,8.43312428 15.0318471,8.10191246 Z M10.0127389,14.8152874 L9.98726115,14.8152874 C9.36730089,14.8152874 8.79193518,14.7876869 8.26114609,14.732485 C7.73035862,14.6772829 7.26751715,14.556265 6.87261187,14.3694276 C6.47770497,14.1825901 6.16772973,13.9129538 5.94267475,13.5605108 C5.7176214,13.2080673 5.60509554,12.7346108 5.60509554,12.1401282 C5.60509554,11.8513798 5.65817396,11.5753743 5.7643308,11.3121035 C5.87048927,11.0488312 6.04670859,10.8067954 6.29299363,10.5859881 C6.69214655,10.2208065 7.21443383,10.0721879 7.85987343,10.140129 C8.50531139,10.2080685 9.21443302,10.2420398 9.98726115,10.2420398 C9.98726115,10.2420398 9.98938415,10.2420398 9.99363017,10.2420398 C9.99787618,10.2420398 10.0000008,10.2420398 10.0000008,10.2420398 C10.0000008,10.2420398 10.0021238,10.2420398 10.0063698,10.2420398 C10.0106158,10.2420398 10.0127389,10.2420398 10.0127389,10.2420398 C10.785567,10.2420398 11.4946886,10.2080685 12.1401282,10.140129 C12.7855662,10.0721879 13.3078535,10.2208065 13.7070064,10.5859881 C13.9532914,10.8067954 14.1295107,11.0488312 14.2356692,11.3121035 C14.341826,11.5753743 14.3949045,11.8513798 14.3949045,12.1401282 C14.3949045,12.7346108 14.2823786,13.2080673 14.0573252,13.5605108 C13.8322703,13.9129538 13.522295,14.1825901 13.1273881,14.3694276 C12.7324829,14.556265 12.2696414,14.6772829 11.7388539,14.732485 C11.2080648,14.7876869 10.6326991,14.8152874 10.0127389,14.8152874 Z M7.92356688,11.1592373 C7.69426589,11.1592373 7.49681651,11.2738845 7.3312106,11.5031855 C7.16560469,11.7324865 7.08280255,12.008492 7.08280255,12.3312118 C7.08280255,12.65393 7.16560469,12.9320585 7.3312106,13.1656055 C7.49681651,13.3991525 7.69426589,13.5159244 7.92356688,13.5159244 C8.1613599,13.5159244 8.36305692,13.3991525 8.52866283,13.1656055 C8.69426874,12.9320585 8.77707088,12.65393 8.77707088,12.3312118 C8.77707088,12.008492 8.69426874,11.7324865 8.52866283,11.5031855 C8.36305692,11.2738845 8.1613599,11.1592373 7.92356688,11.1592373 Z" id="Page-1" fill="#4A4A4A"></path>
                </g>
            </g>
        </g>
    </g>
</svg>

<svg width="22" height="22" xmlns="http://www.w3.org/2000/svg"><g transform="translate(1 1)" fill="none" fill-rule="evenodd"><circle stroke="#4A4A4A" cx="10" cy="10" r="10"/><path d="M12.076 11.16c-.237 0-.44.114-.605.343-.165.23-.248.505-.248.828 0 .323.083.601.248.835.166.233.368.35.605.35.23 0 .427-.117.593-.35.165-.234.248-.512.248-.835 0-.323-.083-.599-.248-.828-.166-.23-.363-.344-.593-.344zm2.956-3.058c.042-.119.047-.467.013-1.045-.034-.577-.179-1.189-.434-1.834l-.815.216c-.543.145-1.261.523-2.153 1.134a4.209 4.209 0 00-.726-.114 10.74 10.74 0 00-1.834 0c-.297.025-.54.063-.726.114-.892-.611-1.61-.99-2.153-1.134l-.815-.216c-.255.645-.4 1.257-.434 1.834-.034.578-.025.926.026 1.045-.306.331-.546.7-.72 1.108-.174.408-.261.883-.261 1.427 0 1.172.208 2.078.624 2.72.416.64.898 1.112 1.446 1.414.548.301 1.09.48 1.624.535.535.055.926.083 1.172.083.11 0 .27.002.478.006a32.209 32.209 0 001.318 0c.204-.004.361-.006.472-.006.246 0 .637-.028 1.172-.083.535-.055 1.076-.234 1.624-.535.548-.302 1.03-.773 1.446-1.414.416-.642.624-1.548.624-2.72 0-.544-.087-1.02-.261-1.427a4.002 4.002 0 00-.707-1.108zm-5.02 6.713h-.025c-.62 0-1.195-.027-1.726-.083a4.265 4.265 0 01-1.388-.363 2.186 2.186 0 01-.93-.808c-.225-.353-.338-.826-.338-1.42 0-.29.053-.566.16-.829.105-.263.282-.505.528-.726.4-.365.921-.514 1.567-.446a20.42 20.42 0 002.127.102H10.013c.773 0 1.482-.034 2.127-.102.646-.068 1.168.08 1.567.446.246.22.423.463.529.726.106.263.159.54.159.828 0 .595-.113 1.068-.338 1.42a2.186 2.186 0 01-.93.81 4.265 4.265 0 01-1.388.362c-.53.056-1.106.083-1.726.083zM7.925 11.16c-.23 0-.427.115-.593.344-.165.23-.248.505-.248.828 0 .323.083.601.248.835.166.233.363.35.593.35.237 0 .44-.117.605-.35.165-.234.248-.512.248-.835 0-.323-.083-.599-.248-.828-.166-.23-.368-.344-.605-.344z" fill="#4A4A4A"/></g></svg>
